SVG_Azure_All/Enterprise Certification Authority Root.svg

<?xml version="1.0" encoding="UTF-8" standalone="no"?>
<!-- Generated by Microsoft Visio, SVG Export Enterprise Certification Authority Root.svg Page-1 -->

<svg
   xmlns:dc="http://purl.org/dc/elements/1.1/"
   xmlns:cc="http://creativecommons.org/ns#"
   xmlns:rdf="http://www.w3.org/1999/02/22-rdf-syntax-ns#"
   xmlns:svg="http://www.w3.org/2000/svg"
   xmlns="http://www.w3.org/2000/svg"
   xmlns:sodipodi="http://sodipodi.sourceforge.net/DTD/sodipodi-0.dtd"
   xmlns:inkscape="http://www.inkscape.org/namespaces/inkscape"
   width="0.66927564in"
   height="0.78730839in"
   viewBox="0 0 48.187798 56.686455"
   xml:space="preserve"
   class="st12"
   version="1.1"
   id="svg177"
   sodipodi:docname="Enterprise Certification Authority Root.svg"
   style="font-size:12px;overflow:visible;color-interpolation-filters:sRGB;fill:none;fill-rule:evenodd;stroke-linecap:square;stroke-miterlimit:3"
   inkscape:version="0.92.5 (2060ec1f9f, 2020-04-08)"><metadata
   id="metadata181"><rdf:RDF><cc:Work
       rdf:about=""><dc:format>image/svg+xml</dc:format><dc:type
         rdf:resource="http://purl.org/dc/dcmitype/StillImage" /></cc:Work></rdf:RDF></metadata><sodipodi:namedview
   pagecolor="#ffffff"
   bordercolor="#666666"
   borderopacity="1"
   objecttolerance="10"
   gridtolerance="10"
   guidetolerance="10"
   inkscape:pageopacity="0"
   inkscape:pageshadow="2"
   inkscape:window-width="640"
   inkscape:window-height="480"
   id="namedview179"
   showgrid="false"
   inkscape:zoom="1.4049465"
   inkscape:cx="30.819641"
   inkscape:cy="37.175966"
   inkscape:window-x="0"
   inkscape:window-y="0"
   inkscape:window-maximized="0"
   inkscape:current-layer="svg177" />
	<style
   type="text/css"
   id="style2">
	<![CDATA[
		.st1 {fill:url(#grad0-11);stroke:none;stroke-linecap:butt;stroke-width:35.9596}
		.st2 {fill:#003067;stroke:none;stroke-linecap:butt;stroke-width:35.9596}
		.st3 {fill:#50e6ff;stroke:none;stroke-linecap:butt;stroke-width:35.9596}
		.st4 {fill:#773adc;stroke:none;stroke-linecap:butt;stroke-width:33.9999}
		.st5 {fill:#f9f9f9;fill-opacity:0.5;stroke:none;stroke-linecap:butt;stroke-width:33.9999}
		.st6 {fill:url(#grad0-38);stroke:none;stroke-linecap:butt;stroke-width:33.9997}
		.st7 {fill:#ffffff;stroke:none;stroke-linecap:butt;stroke-width:33.9997}
		.st8 {fill:#d15900;stroke:none;stroke-linecap:butt;stroke-width:33.9997}
		.st9 {fill:#b31b1b;stroke:none;stroke-linecap:butt;stroke-width:33.9997}
		.st10 {fill:#e62323;stroke:none;stroke-linecap:butt;stroke-width:33.9997}
		.st11 {fill:#ffb34d;stroke:none;stroke-linecap:butt;stroke-width:33.9997}
		.st12 {fill:none;fill-rule:evenodd;font-size:12px;overflow:visible;stroke-linecap:square;stroke-miterlimit:3}
	]]>
	</style>

	<defs
   id="Patterns_And_Gradients">
		<linearGradient
   id="grad0-11"
   x1="-0.00030761081"
   y1="55.168758"
   x2="41.468565"
   y2="55.168758"
   gradientTransform="scale(0.76708708,1.303633)"
   gradientUnits="userSpaceOnUse">
			<stop
   offset="0"
   stop-color="#949494"
   stop-opacity="1"
   id="stop4" />
			<stop
   offset="0.53"
   stop-color="#a2a2a2"
   stop-opacity="1"
   id="stop6" />
			<stop
   offset="1"
   stop-color="#b3b3b3"
   stop-opacity="1"
   id="stop8" />
		</linearGradient>
		<linearGradient
   id="grad0-38"
   x1="0"
   y1="131.52767"
   x2="20.516353"
   y2="131.52767"
   gradientTransform="scale(1.2068422,0.82860877)"
   gradientUnits="userSpaceOnUse">
			<stop
   offset="0"
   stop-color="#e27908"
   stop-opacity="1"
   id="stop11" />
			<stop
   offset="0.325"
   stop-color="#e47d0a"
   stop-opacity="1"
   id="stop13" />
			<stop
   offset="0.62"
   stop-color="#eb8810"
   stop-opacity="1"
   id="stop15" />
			<stop
   offset="0.91"
   stop-color="#f69a19"
   stop-opacity="1"
   id="stop17" />
			<stop
   offset="1"
   stop-color="#faa21d"
   stop-opacity="1"
   id="stop19" />
		</linearGradient>
	</defs>
	<g
   id="g175"
   transform="translate(-35.959989,-34.187642)">
		<title
   id="title23">Page-1</title>
		<g
   id="group5391-1"
   transform="translate(35.9599,-35.1059)">
			<title
   id="title25">Enterprise Certification Authority Root</title>
			<g
   id="group5392-2">
				<title
   id="title27">Page-1</title>
				<g
   id="group5393-3">
					<title
   id="title29">Sheet.5393</title>
					<g
   id="group5394-4"
   transform="translate(0,-0.85375)">
						<title
   id="title31">Sheet.5394</title>
						<g
   id="group5395-5">
							<title
   id="title33">Icon-databases-136.149</title>
							<g
   id="group5396-6">
								<title
   id="title35">path4-5</title>
								<g
   id="group5397-7">
									<title
   id="title37">Sheet.5397</title>
									<g
   id="shape5398-8">
										<title
   id="title39">Sheet.5398</title>
										<path
   d="m 31.81,124.14 a 1.87883,1.87567 -180 0 1 -1.84,1.84 H 1.84 A 1.84644,1.84332 -180 0 1 0,124.14 V 73.76 a 1.81404,1.81098 -180 0 1 1.84,-1.84 h 28.13 a 1.84644,1.84332 -180 0 1 1.84,1.84 z"
   class="st1"
   id="path41"
   inkscape:connector-curvature="0"
   style="fill:url(#grad0-11);stroke:none;stroke-width:35.95959854;stroke-linecap:butt" />
									</g>
								</g>
							</g>
							<g
   id="group5399-12"
   transform="translate(4.66468,-31.6599)">
								<title
   id="title46">path6-7</title>
								<g
   id="group5400-13">
									<title
   id="title48">Sheet.5400</title>
									<g
   id="shape5401-14">
										<title
   id="title50">Sheet.5401</title>
										<path
   d="M 0,122.53 A 3.46611,3.46028 -180 0 1 3.44,119.1 H 19.3 a 3.46611,3.46028 -180 0 1 3.57,3.43 3.46611,3.46028 -180 0 1 -3.57,3.45 H 3.44 A 3.46611,3.46028 -180 0 1 0,122.53 Z m 0,-10.22 a 3.46611,3.46028 -180 0 1 3.44,-3.45 H 19.3 a 3.46611,3.46028 -180 0 1 3.57,3.45 3.46611,3.46028 -180 0 1 -3.57,3.43 H 3.44 A 3.46611,3.46028 -180 0 1 0,112.31 Z"
   class="st2"
   id="path52"
   inkscape:connector-curvature="0"
   style="fill:#003067;stroke:none;stroke-width:35.95959854;stroke-linecap:butt" />
									</g>
								</g>
							</g>
							<g
   id="group5402-16"
   transform="translate(5.96042,-43.0065)">
								<title
   id="title57">circle8-5</title>
								<g
   id="group5403-17">
									<title
   id="title59">Sheet.5403</title>
									<g
   id="shape5404-18">
										<title
   id="title61">Sheet.5404</title>
										<ellipse
   cx="2.33233"
   cy="123.655"
   rx="2.33233"
   ry="2.3284099"
   class="st3"
   id="ellipse63"
   style="fill:#50e6ff;stroke:none;stroke-width:35.95959854;stroke-linecap:butt" />
									</g>
								</g>
							</g>
							<g
   id="group5405-20"
   transform="translate(5.96042,-32.7874)">
								<title
   id="title68">circle10-2</title>
								<g
   id="group5406-21">
									<title
   id="title70">Sheet.5406</title>
									<g
   id="shape5407-22">
										<title
   id="title72">Sheet.5407</title>
										<ellipse
   cx="2.33233"
   cy="123.655"
   rx="2.33233"
   ry="2.3284099"
   class="st3"
   id="ellipse74"
   style="fill:#50e6ff;stroke:none;stroke-width:35.95959854;stroke-linecap:butt" />
									</g>
								</g>
							</g>
						</g>
					</g>
					<g
   id="group5408-24"
   transform="translate(15.3788)">
						<title
   id="title81">Sheet.5408</title>
						<g
   id="group5409-25"
   transform="translate(0.0190229)">
							<title
   id="title83">Sheet.5409</title>
							<g
   id="shape5410-26">
								<title
   id="title85">Sheet.5410</title>
								<path
   d="M 16.4,96.87 0,119.42 l 16.4,6.56 16.39,-6.56 z"
   class="st4"
   id="path87"
   inkscape:connector-curvature="0"
   style="fill:#773adc;stroke:none;stroke-width:33.99990082;stroke-linecap:butt" />
							</g>
						</g>
						<g
   id="group5411-28">
							<title
   id="title91">Sheet.5411</title>
							<g
   id="shape5412-29">
								<title
   id="title93">Sheet.5412</title>
								<path
   d="M 16.4,96.87 0,119.42 l 16.4,6.56 z"
   class="st5"
   id="path95"
   inkscape:connector-curvature="0"
   style="fill:#f9f9f9;fill-opacity:0.5;stroke:none;stroke-width:33.99990082;stroke-linecap:butt" />
							</g>
						</g>
					</g>
					<g
   id="group5413-31"
   transform="translate(23.2528,-34.7383)">
						<title
   id="title100">Management Certificate.741</title>
						<g
   id="group5414-32">
							<title
   id="title102">g14</title>
							<g
   id="group5415-33"
   transform="translate(0,-4.95314)">
								<title
   id="title104">rect2</title>
								<g
   id="group5416-34">
									<title
   id="title106">Sheet.5416</title>
									<g
   id="shape5417-35">
										<title
   id="title108">Sheet.5417</title>
										<path
   d="m 0,125.19 a 0.825239,0.800253 0 0 0 0.8218,0.79501 L 23.93,125.98 a 0.825239,0.800253 0 0 0 0.829339,-0.79501 L 24.76,109.78 a 0.825239,0.800253 0 0 0 -0.829339,-0.79501 L 0.83,108.99 a 0.825239,0.800253 0 0 0 -0.8218,0.79501 z"
   class="st6"
   id="path110"
   inkscape:connector-curvature="0"
   style="fill:url(#grad0-38);stroke:none;stroke-width:33.99969864;stroke-linecap:butt" />
									</g>
								</g>
							</g>
							<g
   id="group5418-39"
   transform="translate(1.44413,-6.4507)">
								<title
   id="title115">rect4</title>
								<g
   id="group5419-40">
									<title
   id="title117">Sheet.5419</title>
									<g
   id="shape5420-41">
										<title
   id="title119">Sheet.5420</title>
										<path
   d="m 0,125.58 a 0.412618,0.400128 0 0 0 0.412608,0.40012 L 21.45,125.98 a 0.412618,0.400128 0 0 0 0.412608,-0.40012 L 21.88,112.37 a 0.412618,0.400128 0 0 0 -0.412608,-0.40012 L 0.41,111.98 a 0.412618,0.400128 0 0 0 -0.412608,0.40012 z"
   class="st7"
   id="path121"
   inkscape:connector-curvature="0"
   style="fill:#ffffff;stroke:none;stroke-width:33.99969864;stroke-linecap:butt" />
									</g>
								</g>
							</g>
							<g
   id="group5421-43"
   transform="translate(4.76151,-10.1271)">
								<title
   id="title126">path6</title>
								<g
   id="group5422-44">
									<title
   id="title128">Sheet.5422</title>
									<g
   id="shape5423-45">
										<title
   id="title130">Sheet.5423</title>
										<path
   d="m 15.79,125.6 a 0.398854,0.386781 0 0 1 -0.398854,0.38678 L 6.47,125.98 a 0.398854,0.386781 0 1 1 0,-0.77223 l 8.93,0.0122 a 0.397479,0.385448 0 0 1 0.398854,0.38545 z m 0,-2.39 a 0.397479,0.385448 0 0 1 -0.398854,0.38545 L 6.47,123.58 a 0.398854,0.386781 0 1 1 0,-0.77223 l 8.93,0.002 a 0.398854,0.386781 0 0 1 0.398854,0.38678 z m 0,-3.5 a 0.398854,0.386781 0 0 1 -0.398854,0.38678 L 0.42,120.1 a 0.398854,0.386781 0 1 1 0,-0.77223 l 14.98,0.002 a 0.397479,0.385448 0 0 1 0.398854,0.38545 z"
   class="st8"
   id="path132"
   inkscape:connector-curvature="0"
   style="fill:#d15900;stroke:none;stroke-width:33.99969864;stroke-linecap:butt" />
									</g>
								</g>
							</g>
							<g
   id="group5424-47"
   transform="translate(2.12769)">
								<title
   id="title137">path8</title>
								<g
   id="group5425-48">
									<title
   id="title139">Sheet.5425</title>
									<g
   id="shape5426-49">
										<title
   id="title141">Sheet.5426</title>
										<path
   d="m 4.93,119.94 a 3.47279,3.36766 0 0 1 -4.64,0 L 0,125.54 a 0.457996,0.444131 0 0 0 0.783952,0.33343 L 2.57,124.11 l 1.81,1.77 a 0.457996,0.444131 0 0 0 0.789456,-0.3241 z"
   class="st9"
   id="path143"
   inkscape:connector-curvature="0"
   style="fill:#b31b1b;stroke:none;stroke-width:33.99969864;stroke-linecap:butt" />
									</g>
								</g>
							</g>
							<g
   id="group5427-51"
   transform="translate(0.640918,-4.87069)">
								<title
   id="title148">ellipse10</title>
								<g
   id="group5428-52">
									<title
   id="title150">Sheet.5428</title>
									<g
   id="shape5429-53">
										<title
   id="title152">Sheet.5429</title>
										<ellipse
   cx="4.14397"
   cy="121.952"
   rx="4.14397"
   ry="4.0318599"
   class="st10"
   id="ellipse154"
   style="fill:#e62323;stroke:none;stroke-width:33.99969864;stroke-linecap:butt" />
									</g>
								</g>
							</g>
							<g
   id="group5430-55"
   transform="translate(1.6408,-5.84376)">
								<title
   id="title159">ellipse12</title>
								<g
   id="group5431-56">
									<title
   id="title161">Sheet.5431</title>
									<g
   id="shape5432-57">
										<title
   id="title163">Sheet.5432</title>
										<ellipse
   cx="3.1440699"
   cy="122.926"
   rx="3.1440699"
   ry="3.0582399"
   class="st11"
   id="ellipse165"
   style="fill:#ffb34d;stroke:none;stroke-width:33.99969864;stroke-linecap:butt" />
									</g>
								</g>
							</g>
						</g>
					</g>
				</g>
			</g>
		</g>
	</g>
</svg>

<?xml version="1.0" encoding="UTF-8" standalone="no"?>
<!DOCTYPE svg PUBLIC "-//W3C//DTD SVG 1.1//EN" "http://www.w3.org/Graphics/SVG/1.1/DTD/svg11.dtd">
<!-- Generated by Microsoft Visio, SVG Export Enterprise Certification Authority Root.svg Page-1 -->
<svg xmlns="http://www.w3.org/2000/svg" xmlns:xlink="http://www.w3.org/1999/xlink" xmlns:ev="http://www.w3.org/2001/xml-events"
		width="1.64096in" height="1.74977in" viewBox="0 0 118.149 125.984" xml:space="preserve" color-interpolation-filters="sRGB"
		class="st12">
	<style type="text/css">
	<![CDATA[
		.st1 {fill:url(#grad0-11);stroke:none;stroke-linecap:butt;stroke-width:35.9596}
		.st2 {fill:#003067;stroke:none;stroke-linecap:butt;stroke-width:35.9596}
		.st3 {fill:#50e6ff;stroke:none;stroke-linecap:butt;stroke-width:35.9596}
		.st4 {fill:#773adc;stroke:none;stroke-linecap:butt;stroke-width:33.9999}
		.st5 {fill:#f9f9f9;fill-opacity:0.5;stroke:none;stroke-linecap:butt;stroke-width:33.9999}
		.st6 {fill:url(#grad0-38);stroke:none;stroke-linecap:butt;stroke-width:33.9997}
		.st7 {fill:#ffffff;stroke:none;stroke-linecap:butt;stroke-width:33.9997}
		.st8 {fill:#d15900;stroke:none;stroke-linecap:butt;stroke-width:33.9997}
		.st9 {fill:#b31b1b;stroke:none;stroke-linecap:butt;stroke-width:33.9997}
		.st10 {fill:#e62323;stroke:none;stroke-linecap:butt;stroke-width:33.9997}
		.st11 {fill:#ffb34d;stroke:none;stroke-linecap:butt;stroke-width:33.9997}
		.st12 {fill:none;fill-rule:evenodd;font-size:12px;overflow:visible;stroke-linecap:square;stroke-miterlimit:3}
	]]>
	</style>

	<defs id="Patterns_And_Gradients">
		<linearGradient id="grad0-11" x1="0" y1="0" x2="1" y2="0" gradientTransform="rotate(-90 0.5 0.5)">
			<stop offset="0" stop-color="#949494" stop-opacity="1"/>
			<stop offset="0.53" stop-color="#a2a2a2" stop-opacity="1"/>
			<stop offset="1" stop-color="#b3b3b3" stop-opacity="1"/>
		</linearGradient>
		<linearGradient id="grad0-38" x1="0" y1="0" x2="1" y2="0" gradientTransform="rotate(-90 0.5 0.5)">
			<stop offset="0" stop-color="#e27908" stop-opacity="1"/>
			<stop offset="0.325" stop-color="#e47d0a" stop-opacity="1"/>
			<stop offset="0.62" stop-color="#eb8810" stop-opacity="1"/>
			<stop offset="0.91" stop-color="#f69a19" stop-opacity="1"/>
			<stop offset="1" stop-color="#faa21d" stop-opacity="1"/>
		</linearGradient>
	</defs>
	<g>
		<title>Page-1</title>
		<g id="group5285-1" transform="translate(35.9599,-35.1059)">
			<title>Enterprise Certification Authority Root</title>
			<g id="group5286-2">
				<title>Page-1</title>
				<g id="group5287-3">
					<title>Sheet.5287</title>
					<g id="group5288-4" transform="translate(0,-0.85375)">
						<title>Sheet.5288</title>
						<g id="group5289-5">
							<title>Icon-databases-136.149</title>
							<g id="group5290-6">
								<title>path4-5</title>
								<g id="group5291-7">
									<title>Sheet.5291</title>
									<g id="shape5292-8">
										<title>Sheet.5292</title>
										<path d="M31.81 124.14 A1.87883 1.87567 180 0 1 29.97 125.98 L1.84 125.98 A1.84644 1.84332
													 180 0 1 -0 124.14 L0 73.76 A1.81404 1.81098 180 0 1 1.84 71.92 L29.97 71.92
													 A1.84644 1.84332 180 0 1 31.81 73.76 L31.81 124.14 Z" class="st1"/>
									</g>
								</g>
							</g>
							<g id="group5293-12" transform="translate(4.66468,-31.6599)">
								<title>path6-7</title>
								<g id="group5294-13">
									<title>Sheet.5294</title>
									<g id="shape5295-14">
										<title>Sheet.5295</title>
										<path d="M0 122.53 A3.46611 3.46028 180 0 1 3.44 119.1 L19.3 119.1 A3.46611 3.46028 180 0
													 1 22.87 122.53 A3.46611 3.46028 180 0 1 19.3 125.98 L3.44 125.98 A3.46611 3.46028
													 180 0 1 0 122.53 ZM0 112.31 A3.46611 3.46028 180 0 1 3.44 108.86 L19.3 108.86
													 A3.46611 3.46028 180 0 1 22.87 112.31 A3.46611 3.46028 180 0 1 19.3 115.74 L3.44
													 115.74 A3.46611 3.46028 180 0 1 0 112.31 Z" class="st2"/>
									</g>
								</g>
							</g>
							<g id="group5296-16" transform="translate(5.96042,-43.0065)">
								<title>circle8-5</title>
								<g id="group5297-17">
									<title>Sheet.5297</title>
									<g id="shape5298-18">
										<title>Sheet.5298</title>
										<ellipse cx="2.33233" cy="123.655" rx="2.33233" ry="2.32841" class="st3"/>
									</g>
								</g>
							</g>
							<g id="group5299-20" transform="translate(5.96042,-32.7874)">
								<title>circle10-2</title>
								<g id="group5300-21">
									<title>Sheet.5300</title>
									<g id="shape5301-22">
										<title>Sheet.5301</title>
										<ellipse cx="2.33233" cy="123.655" rx="2.33233" ry="2.32841" class="st3"/>
									</g>
								</g>
							</g>
						</g>
					</g>
					<g id="group5302-24" transform="translate(15.3788,1.42109E-14)">
						<title>Sheet.5302</title>
						<g id="group5303-25" transform="translate(0.0190229,1.42109E-14)">
							<title>Sheet.5303</title>
							<g id="shape5304-26">
								<title>Sheet.5304</title>
								<path d="M16.4 96.87 L0 119.42 L16.4 125.98 L32.79 119.42 L16.4 96.87 Z" class="st4"/>
							</g>
						</g>
						<g id="group5305-28">
							<title>Sheet.5305</title>
							<g id="shape5306-29">
								<title>Sheet.5306</title>
								<path d="M16.4 96.87 L0 119.42 L16.4 125.98 L16.4 96.87 Z" class="st5"/>
							</g>
						</g>
					</g>
					<g id="group5307-31" transform="translate(23.2528,-34.7383)">
						<title>Management Certificate.741</title>
						<g id="group5308-32">
							<title>g14</title>
							<g id="group5309-33" transform="translate(0,-4.95314)">
								<title>rect2</title>
								<g id="group5310-34">
									<title>Sheet.5310</title>
									<g id="shape5311-35">
										<title>Sheet.5311</title>
										<path d="M0 125.19 a0.825239 0.800253 -0 0 0 0.8218 0.795008 L23.93 125.98 a0.825239 0.800253
													 -0 0 0 0.829339 -0.795008 L24.76 109.78 a0.825239 0.800253 -0 0 0 -0.829339
													 -0.795008 L0.83 108.99 a0.825239 0.800253 -0 0 0 -0.8218 0.795008 L0 125.19
													 Z" class="st6"/>
									</g>
								</g>
							</g>
							<g id="group5312-39" transform="translate(1.44413,-6.4507)">
								<title>rect4</title>
								<g id="group5313-40">
									<title>Sheet.5313</title>
									<g id="shape5314-41">
										<title>Sheet.5314</title>
										<path d="M-0 125.58 a0.412618 0.400128 -0 0 0 0.412608 0.400118 L21.45 125.98 a0.412618 0.400128
													 -0 0 0 0.412608 -0.400118 L21.88 112.37 a0.412618 0.400128 -0 0 0 -0.412608
													 -0.400118 L0.41 111.98 a0.412618 0.400128 -0 0 0 -0.412608 0.400118 L0 125.58
													 Z" class="st7"/>
									</g>
								</g>
							</g>
							<g id="group5315-43" transform="translate(4.76151,-10.1271)">
								<title>path6</title>
								<g id="group5316-44">
									<title>Sheet.5316</title>
									<g id="shape5317-45">
										<title>Sheet.5317</title>
										<path d="M15.79 125.6 a0.398854 0.386781 0 0 1 -0.398854 0.386781 L6.47 125.98 a0.398854
													 0.386781 0 1 1 -1.06581E-14 -0.772228 L15.4 125.22 a0.397479 0.385448 0 0 1
													 0.398854 0.385448 L15.79 125.6 ZM15.79 123.21 a0.397479 0.385448 0 0 1 -0.398854
													 0.385448 L6.47 123.58 a0.398854 0.386781 0 1 1 -1.06581E-14 -0.772228 L15.4
													 122.81 a0.398854 0.386781 0 0 1 0.398854 0.386781 L15.79 123.21 ZM15.79 119.71
													 a0.398854 0.386781 0 0 1 -0.398854 0.386781 L0.42 120.1 a0.398854 0.386781 0
													 1 1 -1.07137E-14 -0.772228 L15.4 119.33 a0.397479 0.385448 0 0 1 0.398854 0.385448
													 L15.79 119.71 Z" class="st8"/>
									</g>
								</g>
							</g>
							<g id="group5318-47" transform="translate(2.12769,1.42109E-14)">
								<title>path8</title>
								<g id="group5319-48">
									<title>Sheet.5319</title>
									<g id="shape5320-49">
										<title>Sheet.5320</title>
										<path d="M4.93 119.94 A3.47279 3.36766 0 0 1 0.29 119.94 L0 125.54 a0.457996 0.444131 -0
													 0 0 0.783952 0.333432 L2.57 124.11 L4.38 125.88 a0.457996 0.444131 -0 0 0 0.789456
													 -0.324096 L4.93 119.94 Z" class="st9"/>
									</g>
								</g>
							</g>
							<g id="group5321-51" transform="translate(0.640918,-4.87069)">
								<title>ellipse10</title>
								<g id="group5322-52">
									<title>Sheet.5322</title>
									<g id="shape5323-53">
										<title>Sheet.5323</title>
										<ellipse cx="4.14397" cy="121.952" rx="4.14397" ry="4.03186" class="st10"/>
									</g>
								</g>
							</g>
							<g id="group5324-55" transform="translate(1.6408,-5.84376)">
								<title>ellipse12</title>
								<g id="group5325-56">
									<title>Sheet.5325</title>
									<g id="shape5326-57">
										<title>Sheet.5326</title>
										<ellipse cx="3.14407" cy="122.926" rx="3.14407" ry="3.05824" class="st11"/>
									</g>
								</g>
							</g>
						</g>
					</g>
				</g>
			</g>
		</g>
	</g>
</svg>
